app/dist/common/images/wt-financial-limited.svg

<svg height="18" viewBox="0 0 18 18" width="18" xmlns="http://www.w3.org/2000/svg"><path d="m0 0h18v18h-18z" fill="#4c5558"/><path d="m8 10.5.82-3.85-.52-.17v-.48h1.7v.48l-.54.18-1.21 5.34h-.88l-.87-3.6-.77 3.6h-.88l-1.34-5.34-.51-.18v-.48h2.06v.48l-.63.18 1.07 3.84.7-3.47-.05-.37-.51-.18v-.48h1.92v.48l-.6.18zm2.4-4.5h4.2v2h-.42l-.2-1.38h-.98v4.7l.99.2v.48h-3v-.48l1-.2v-4.7h-1l-.19 1.38h-.4z" fill="#f0f3fa"/></svg>

<!-- by TradingView --><svg width="18" height="18" viewBox="0 0 18 18" xmlns="http://www.w3.org/2000/svg"><path fill="#4C5558" d="M0 0h18v18H0z"/><path d="m8 10.5.82-3.85-.52-.17V6H10v.48l-.54.18L8.25 12h-.88L6.5 8.4 5.73 12h-.88L3.51 6.66 3 6.48V6h2.06v.48l-.63.18L5.5 10.5l.7-3.47-.05-.37-.51-.18V6h1.92v.48l-.6.18L8 10.5ZM10.4 6h4.2v2h-.42l-.2-1.38H13v4.7l.99.2V12h-3v-.48l1-.2v-4.7h-1L10.8 8h-.4V6Z" fill="#F0F3FA"/></svg>
